src/assets/logos/logo.svg

<svg width="57" height="76" viewBox="0 0 57 76" fill="none" xmlns="http://www.w3.org/2000/svg">
<path d="M4.31143 66.2727H6.1353V72.358C6.1353 72.9205 6.00888 73.4091 5.75604 73.8239C5.50604 74.2386 5.15803 74.5582 4.712 74.7827C4.26598 75.0071 3.74751 75.1193 3.15661 75.1193C2.63104 75.1193 2.15376 75.027 1.72479 74.8423C1.29865 74.6548 0.960582 74.3707 0.710582 73.9901C0.460582 73.6065 0.337003 73.125 0.339844 72.5455H2.17649C2.18217 72.7756 2.22905 72.973 2.31712 73.1378C2.40803 73.2997 2.53161 73.4247 2.68786 73.5128C2.84695 73.598 3.03445 73.6406 3.25036 73.6406C3.47763 73.6406 3.66939 73.5923 3.82564 73.4957C3.98473 73.3963 4.10547 73.2514 4.18786 73.0611C4.27024 72.8707 4.31143 72.6364 4.31143 72.358V66.2727Z" fill="#AB134D"/>
<path d="M10.5842 75.1278C9.92223 75.1278 9.34979 74.9872 8.86683 74.706C8.38672 74.4219 8.01598 74.027 7.75462 73.5213C7.49325 73.0128 7.36257 72.4233 7.36257 71.7528C7.36257 71.0767 7.49325 70.4858 7.75462 69.9801C8.01598 69.4716 8.38672 69.0767 8.86683 68.7955C9.34979 68.5114 9.92223 68.3693 10.5842 68.3693C11.2461 68.3693 11.8171 68.5114 12.2972 68.7955C12.7802 69.0767 13.1523 69.4716 13.4137 69.9801C13.6751 70.4858 13.8058 71.0767 13.8058 71.7528C13.8058 72.4233 13.6751 73.0128 13.4137 73.5213C13.1523 74.027 12.7802 74.4219 12.2972 74.706C11.8171 74.9872 11.2461 75.1278 10.5842 75.1278ZM10.5927 73.7216C10.8938 73.7216 11.1452 73.6364 11.3469 73.4659C11.5487 73.2926 11.7006 73.0568 11.8029 72.7585C11.908 72.4602 11.9606 72.1207 11.9606 71.7401C11.9606 71.3594 11.908 71.0199 11.8029 70.7216C11.7006 70.4233 11.5487 70.1875 11.3469 70.0142C11.1452 69.8409 10.8938 69.7543 10.5927 69.7543C10.2887 69.7543 10.033 69.8409 9.82564 70.0142C9.62109 70.1875 9.46626 70.4233 9.36115 70.7216C9.25888 71.0199 9.20774 71.3594 9.20774 71.7401C9.20774 72.1207 9.25888 72.4602 9.36115 72.7585C9.46626 73.0568 9.62109 73.2926 9.82564 73.4659C10.033 73.6364 10.2887 73.7216 10.5927 73.7216ZM17.9691 75.1278C17.2958 75.1278 16.7163 74.9915 16.2305 74.7188C15.7475 74.4432 15.3754 74.054 15.114 73.5511C14.8526 73.0455 14.7219 72.4474 14.7219 71.7571C14.7219 71.0838 14.8526 70.4929 15.114 69.9844C15.3754 69.4759 15.7433 69.0795 16.2177 68.7955C16.695 68.5114 17.2546 68.3693 17.8967 68.3693C18.3285 68.3693 18.7305 68.4389 19.1026 68.5781C19.4776 68.7145 19.8043 68.9205 20.0827 69.196C20.364 69.4716 20.5827 69.8182 20.739 70.2358C20.8952 70.6506 20.9734 71.1364 20.9734 71.6932V72.1918H15.4464V71.0668H19.2646C19.2646 70.8054 19.2077 70.5739 19.0941 70.3722C18.9805 70.1705 18.8228 70.0128 18.6211 69.8991C18.4222 69.7827 18.1907 69.7244 17.9265 69.7244C17.6509 69.7244 17.4066 69.7884 17.1935 69.9162C16.9833 70.0412 16.8185 70.2102 16.6992 70.4233C16.5799 70.6335 16.5188 70.8679 16.516 71.1264V72.196C16.516 72.5199 16.5756 72.7997 16.695 73.0355C16.8171 73.2713 16.989 73.4531 17.2106 73.581C17.4322 73.7088 17.695 73.7727 17.9989 73.7727C18.2006 73.7727 18.3853 73.7443 18.5529 73.6875C18.7205 73.6307 18.864 73.5455 18.9833 73.4318C19.1026 73.3182 19.1935 73.179 19.256 73.0142L20.935 73.125C20.8498 73.5284 20.6751 73.8807 20.4109 74.1818C20.1495 74.4801 19.8114 74.7131 19.3967 74.8807C18.9847 75.0455 18.5089 75.1278 17.9691 75.1278ZM23.9734 66.2727V75H22.158V66.2727H23.9734ZM39.0511 75.1278C38.3778 75.1278 37.7983 74.9915 37.3125 74.7188C36.8295 74.4432 36.4574 74.054 36.196 73.5511C35.9347 73.0455 35.804 72.4474 35.804 71.7571C35.804 71.0838 35.9347 70.4929 36.196 69.9844C36.4574 69.4759 36.8253 69.0795 37.2997 68.7955C37.777 68.5114 38.3366 68.3693 38.9787 68.3693C39.4105 68.3693 39.8125 68.4389 40.1847 68.5781C40.5597 68.7145 40.8864 68.9205 41.1648 69.196C41.446 69.4716 41.6648 69.8182 41.821 70.2358C41.9773 70.6506 42.0554 71.1364 42.0554 71.6932V72.1918H36.5284V71.0668H40.3466C40.3466 70.8054 40.2898 70.5739 40.1761 70.3722C40.0625 70.1705 39.9048 70.0128 39.7031 69.8991C39.5043 69.7827 39.2727 69.7244 39.0085 69.7244C38.733 69.7244 38.4886 69.7884 38.2756 69.9162C38.0653 70.0412 37.9006 70.2102 37.7812 70.4233C37.6619 70.6335 37.6009 70.8679 37.598 71.1264V72.196C37.598 72.5199 37.6577 72.7997 37.777 73.0355C37.8991 73.2713 38.071 73.4531 38.2926 73.581C38.5142 73.7088 38.777 73.7727 39.081 73.7727C39.2827 73.7727 39.4673 73.7443 39.6349 73.6875C39.8026 73.6307 39.946 73.5455 40.0653 73.4318C40.1847 73.3182 40.2756 73.179 40.3381 73.0142L42.017 73.125C41.9318 73.5284 41.7571 73.8807 41.4929 74.1818C41.2315 74.4801 40.8935 74.7131 40.4787 74.8807C40.0668 75.0455 39.5909 75.1278 39.0511 75.1278ZM45.0554 71.2159V75H43.2401V68.4545H44.9702V69.6094H45.0469C45.1918 69.2287 45.4347 68.9276 45.7756 68.706C46.1165 68.4815 46.5298 68.3693 47.0156 68.3693C47.4702 68.3693 47.8665 68.4688 48.2045 68.6676C48.5426 68.8665 48.8054 69.1506 48.9929 69.5199C49.1804 69.8864 49.2741 70.3239 49.2741 70.8324V75H47.4588V71.1562C47.4616 70.7557 47.3594 70.4432 47.152 70.2188C46.9446 69.9915 46.6591 69.8778 46.2955 69.8778C46.0511 69.8778 45.8352 69.9304 45.6477 70.0355C45.4631 70.1406 45.3182 70.294 45.2131 70.4957C45.1108 70.6946 45.0582 70.9347 45.0554 71.2159ZM52.5714 75.1236C52.1538 75.1236 51.7816 75.0511 51.4549 74.9062C51.1282 74.7585 50.8697 74.5412 50.6793 74.2543C50.4918 73.9645 50.3981 73.6037 50.3981 73.1719C50.3981 72.8082 50.4648 72.5028 50.5984 72.2557C50.7319 72.0085 50.9137 71.8097 51.1438 71.6591C51.3739 71.5085 51.6353 71.3949 51.9279 71.3182C52.2234 71.2415 52.533 71.1875 52.8569 71.1562C53.2376 71.1165 53.5444 71.0795 53.7773 71.0455C54.0103 71.0085 54.1793 70.9545 54.2844 70.8835C54.3896 70.8125 54.4421 70.7074 54.4421 70.5682V70.5426C54.4421 70.2727 54.3569 70.0639 54.1864 69.9162C54.0188 69.7685 53.7802 69.6946 53.4705 69.6946C53.1438 69.6946 52.8839 69.767 52.6907 69.9119C52.4975 70.054 52.3697 70.233 52.3072 70.4489L50.6282 70.3125C50.7134 69.9148 50.881 69.571 51.131 69.2812C51.381 68.9886 51.7035 68.7642 52.0984 68.608C52.4961 68.4489 52.9563 68.3693 53.479 68.3693C53.8427 68.3693 54.1907 68.4119 54.5231 68.4972C54.8583 68.5824 55.1552 68.7145 55.4137 68.8935C55.6751 69.0724 55.881 69.3026 56.0316 69.5838C56.1822 69.8622 56.2575 70.196 56.2575 70.5852V75H54.5359V74.0923H54.4847C54.3796 74.2969 54.239 74.4773 54.0629 74.6335C53.8867 74.7869 53.6751 74.9077 53.4279 74.9957C53.1808 75.081 52.8952 75.1236 52.5714 75.1236ZM53.0913 73.8707C53.3583 73.8707 53.5941 73.8182 53.7987 73.7131C54.0032 73.6051 54.1637 73.4602 54.2802 73.2784C54.3967 73.0966 54.4549 72.8906 54.4549 72.6605V71.9659C54.3981 72.0028 54.32 72.0369 54.2205 72.0682C54.1239 72.0966 54.0146 72.1236 53.8924 72.1491C53.7702 72.1719 53.6481 72.1932 53.5259 72.2131C53.4038 72.2301 53.293 72.2457 53.1935 72.2599C52.9805 72.2912 52.7944 72.3409 52.6353 72.4091C52.4762 72.4773 52.3526 72.5696 52.2646 72.6861C52.1765 72.7997 52.1325 72.9418 52.1325 73.1122C52.1325 73.3594 52.2219 73.5483 52.4009 73.679C52.5827 73.8068 52.8129 73.8707 53.0913 73.8707Z" fill="white"/>
<path d="M32.9734 68.7827C32.9393 68.4389 32.793 68.1719 32.5344 67.9815C32.2759 67.7912 31.9251 67.696 31.4819 67.696C31.1808 67.696 30.9265 67.7386 30.7191 67.8239C30.5117 67.9062 30.3526 68.0213 30.2418 68.169C30.1339 68.3168 30.0799 68.4844 30.0799 68.6719C30.0742 68.8281 30.1069 68.9645 30.1779 69.081C30.2518 69.1974 30.3526 69.2983 30.4805 69.3835C30.6083 69.4659 30.756 69.5384 30.9237 69.6009C31.0913 69.6605 31.2702 69.7116 31.4606 69.7543L32.2447 69.9418C32.6254 70.027 32.9748 70.1406 33.293 70.2827C33.6112 70.4247 33.8867 70.5994 34.1197 70.8068C34.3526 71.0142 34.533 71.2585 34.6609 71.5398C34.7915 71.821 34.8583 72.1435 34.8612 72.5071C34.8583 73.0412 34.7219 73.5043 34.4521 73.8963C34.185 74.2855 33.7987 74.5881 33.293 74.804C32.7901 75.017 32.1836 75.1236 31.4734 75.1236C30.7688 75.1236 30.1552 75.0156 29.6325 74.7997C29.1126 74.5838 28.7063 74.2642 28.4137 73.8409C28.1239 73.4148 27.9719 72.8878 27.9577 72.2599H29.7433C29.7631 72.5526 29.8469 72.7969 29.9947 72.9929C30.1452 73.1861 30.3455 73.3324 30.5955 73.4318C30.8484 73.5284 31.1339 73.5767 31.4521 73.5767C31.7646 73.5767 32.0359 73.5312 32.266 73.4403C32.4989 73.3494 32.6793 73.223 32.8072 73.0611C32.935 72.8991 32.9989 72.7131 32.9989 72.5028C32.9989 72.3068 32.9407 72.142 32.8242 72.0085C32.7106 71.875 32.543 71.7614 32.3214 71.6676C32.1026 71.5739 31.8342 71.4886 31.516 71.4119L30.5657 71.1733C29.8299 70.9943 29.2489 70.7145 28.8228 70.3338C28.3967 69.9531 28.185 69.4403 28.1879 68.7955C28.185 68.267 28.3256 67.8054 28.6097 67.4105C28.8967 67.0156 29.2901 66.7074 29.7901 66.4858C30.2901 66.2642 30.8583 66.1534 31.4947 66.1534C32.1424 66.1534 32.7077 66.2642 33.1907 66.4858C33.6765 66.7074 34.0543 67.0156 34.3242 67.4105C34.5941 67.8054 34.7333 68.2628 34.7418 68.7827H32.9734Z" fill="#13AB1E"/>
<path d="M38.4084 19.6178C38.1811 17.3261 37.2057 15.5458 35.4822 14.2769C33.7588 13.008 31.4197 12.3735 28.4652 12.3735C26.4576 12.3735 24.7625 12.6576 23.38 13.2258C21.9974 13.775 20.9368 14.5421 20.1982 15.5269C19.4785 16.5118 19.1186 17.6292 19.1186 18.8792C19.0807 19.9208 19.2985 20.8299 19.772 21.6065C20.2644 22.383 20.9368 23.0553 21.7891 23.6235C22.6413 24.1727 23.6262 24.6557 24.7436 25.0724C25.861 25.4701 27.0542 25.811 28.3232 26.0951L33.5504 27.3451C36.0883 27.9133 38.4179 28.6708 40.5391 29.6178C42.6603 30.5648 44.4974 31.7296 46.0504 33.1121C47.6035 34.4947 48.8061 36.1235 49.6584 37.9985C50.5296 39.8735 50.9747 42.0231 50.9936 44.4474C50.9747 48.008 50.0656 51.0951 48.2663 53.7087C46.486 56.3034 43.9103 58.3205 40.5391 59.7599C37.1868 61.1803 33.1432 61.8905 28.4084 61.8905C23.7114 61.8905 19.6205 61.1708 16.1357 59.7315C12.6697 58.2921 9.96141 56.1614 8.01065 53.3394C6.07884 50.4985 5.06558 46.9852 4.97088 42.7996H16.8743C17.0069 44.7504 17.5656 46.3792 18.5504 47.686C19.5542 48.9739 20.8894 49.9493 22.5561 50.6121C24.2417 51.2561 26.1451 51.578 28.2663 51.578C30.3497 51.578 32.1584 51.275 33.6925 50.669C35.2455 50.0629 36.4482 49.2201 37.3004 48.1405C38.1527 47.061 38.5788 45.8205 38.5788 44.419C38.5788 43.1121 38.1906 42.0137 37.4141 41.1235C36.6565 40.2333 35.5391 39.4758 34.0618 38.8508C32.6035 38.2258 30.8137 37.6576 28.6925 37.1462L22.3572 35.5553C17.4519 34.3621 13.5788 32.4966 10.7379 29.9587C7.89702 27.4208 6.48603 24.0023 6.50497 19.703C6.48603 16.1803 7.42353 13.1027 9.31747 10.4701C11.2304 7.83751 13.8535 5.78259 17.1868 4.30532C20.5201 2.82804 24.308 2.08941 28.5504 2.08941C32.8686 2.08941 36.6375 2.82804 39.8572 4.30532C43.0959 5.78259 45.6148 7.83751 47.4141 10.4701C49.2133 13.1027 50.1413 16.1519 50.1982 19.6178H38.4084Z" fill="#13AB1E"/>
<path d="M31.3523 0.81818H43.5114V41.3864C43.5114 45.1364 42.6686 48.3939 40.983 51.1591C39.3163 53.9242 36.9962 56.0549 34.0227 57.5511C31.0492 59.0473 27.5928 59.7955 23.6534 59.7955C20.1496 59.7955 16.9678 59.1799 14.108 57.9489C11.267 56.6989 9.01326 54.8049 7.34659 52.267C5.67992 49.7102 4.85606 46.5 4.875 42.6364H17.1193C17.1572 44.1705 17.4697 45.4867 18.0568 46.5852C18.6629 47.6648 19.4867 48.4981 20.5284 49.0852C21.589 49.6534 22.839 49.9375 24.2784 49.9375C25.7936 49.9375 27.072 49.6155 28.1136 48.9716C29.1742 48.3087 29.9792 47.3428 30.5284 46.0739C31.0777 44.8049 31.3523 43.2424 31.3523 41.3864V0.81818Z" fill="#AB134D"/>
</svg>

<svg width="57" height="76" fill="none" xmlns="http://www.w3.org/2000/svg"><path d="M4.311 66.273h1.824v6.085c0 .563-.126 1.051-.379 1.466-.25.415-.598.734-1.044.959-.446.224-.964.336-1.555.336a3.584 3.584 0 0 1-1.432-.277A2.289 2.289 0 0 1 .71 73.99c-.25-.383-.374-.865-.371-1.444h1.836c.006.23.053.427.141.592a.96.96 0 0 0 .37.375c.16.085.347.128.563.128.228 0 .42-.049.576-.145.159-.1.28-.245.362-.435a1.77 1.77 0 0 0 .123-.703v-6.085z" fill="#AB134D"/><path d="M10.584 75.128c-.662 0-1.234-.14-1.717-.422a2.887 2.887 0 0 1-1.112-1.185c-.262-.508-.392-1.098-.392-1.768 0-.676.13-1.267.392-1.773a2.852 2.852 0 0 1 1.112-1.184c.483-.285 1.055-.427 1.717-.427.662 0 1.233.142 1.713.427.483.28.855.676 1.117 1.184.261.506.392 1.097.392 1.773 0 .67-.13 1.26-.392 1.768-.262.506-.634.9-1.117 1.185-.48.281-1.05.422-1.713.422zm.009-1.406c.3 0 .552-.086.754-.256.202-.173.354-.41.456-.707.105-.299.158-.638.158-1.019 0-.38-.053-.72-.158-1.018a1.585 1.585 0 0 0-.456-.708 1.117 1.117 0 0 0-.754-.26c-.304 0-.56.087-.767.26-.205.174-.36.41-.465.708a3.132 3.132 0 0 0-.153 1.018c0 .38.05.72.153 1.019.105.298.26.534.465.707.207.17.463.256.767.256zm7.376 1.406c-.673 0-1.253-.136-1.739-.41a2.802 2.802 0 0 1-1.116-1.167c-.261-.505-.392-1.104-.392-1.794 0-.673.13-1.264.392-1.773.261-.508.63-.904 1.104-1.188.477-.285 1.037-.427 1.679-.427.431 0 .834.07 1.206.21.375.136.701.342.98.617.281.276.5.622.656 1.04.156.415.234.9.234 1.457v.499h-5.527v-1.125h3.819a1.39 1.39 0 0 0-.17-.695 1.221 1.221 0 0 0-.474-.473 1.35 1.35 0 0 0-.694-.175c-.276 0-.52.064-.733.192-.21.125-.375.294-.495.507-.12.21-.18.445-.183.703v1.07c0 .324.06.604.179.84.122.235.294.417.516.545.221.128.484.192.788.192.202 0 .386-.029.554-.085a1.111 1.111 0 0 0 .703-.673l1.679.11c-.085.403-.26.756-.524 1.057-.262.298-.6.531-1.014.699-.412.165-.888.247-1.428.247zm6.004-8.855V75h-1.815v-8.727h1.815zm15.078 8.855c-.673 0-1.253-.136-1.739-.41a2.802 2.802 0 0 1-1.116-1.167c-.261-.505-.392-1.104-.392-1.794 0-.673.13-1.264.392-1.773.261-.508.63-.904 1.104-1.188.477-.285 1.037-.427 1.679-.427.431 0 .834.07 1.206.21.375.136.701.342.98.617.281.276.5.622.656 1.04.156.415.234.9.234 1.457v.499h-5.527v-1.125h3.819a1.39 1.39 0 0 0-.17-.695 1.221 1.221 0 0 0-.474-.473 1.35 1.35 0 0 0-.695-.175c-.275 0-.52.064-.732.192-.21.125-.375.294-.495.507-.12.21-.18.445-.183.703v1.07c0 .324.06.604.179.84.122.235.294.417.516.545.221.128.484.192.788.192.202 0 .386-.029.554-.085a1.11 1.11 0 0 0 .703-.673l1.679.11c-.085.403-.26.756-.524 1.057-.262.298-.6.531-1.014.699-.412.165-.888.247-1.428.247zm6.004-3.912V75H43.24v-6.546h1.73v1.155h.077c.145-.38.388-.681.729-.903.34-.225.754-.337 1.24-.337.454 0 .85.1 1.189.299.338.198.6.483.788.852.187.366.281.804.281 1.312V75H47.46v-3.844c.003-.4-.1-.713-.307-.937-.207-.227-.493-.341-.857-.341-.244 0-.46.052-.647.157-.185.106-.33.259-.435.46a1.594 1.594 0 0 0-.158.72zm7.516 3.908c-.417 0-.79-.073-1.116-.218a1.798 1.798 0 0 1-.776-.652c-.187-.29-.28-.65-.28-1.082 0-.364.066-.67.2-.916.133-.248.315-.446.545-.597.23-.15.491-.264.784-.34.295-.078.605-.132.929-.163.38-.04.687-.077.92-.11.233-.038.402-.092.507-.163a.356.356 0 0 0 .158-.315v-.025c0-.27-.085-.48-.256-.627-.167-.147-.406-.221-.715-.221-.327 0-.587.072-.78.217a1 1 0 0 0-.384.537l-1.679-.136c.085-.398.253-.742.503-1.032.25-.292.572-.517.967-.673.398-.16.858-.239 1.381-.239.364 0 .712.043 1.044.128.335.085.632.218.89.397.262.178.468.409.619.69.15.278.226.612.226 1.001V75h-1.722v-.908h-.051a1.846 1.846 0 0 1-.422.541 1.952 1.952 0 0 1-.635.363 2.623 2.623 0 0 1-.857.128zm.52-1.253c.267 0 .503-.053.708-.158.204-.108.365-.253.481-.435a1.12 1.12 0 0 0 .175-.618v-.694a.974.974 0 0 1-.234.102 4.245 4.245 0 0 1-.329.081c-.122.023-.244.044-.366.064a99.05 99.05 0 0 0-.333.047c-.212.031-.399.08-.558.15a.892.892 0 0 0-.37.276.675.675 0 0 0-.133.426c0 .247.09.436.269.567.182.128.412.192.69.192z" fill="#fff"/><path d="M32.973 68.783a1.078 1.078 0 0 0-.439-.802c-.258-.19-.609-.285-1.052-.285-.301 0-.555.043-.763.128a1.073 1.073 0 0 0-.477.345.831.831 0 0 0-.162.503.718.718 0 0 0 .098.409c.074.116.175.217.302.302.128.083.276.155.444.218.167.06.346.11.537.153l.784.188c.38.085.73.199 1.048.34.318.143.594.317.827.525.233.207.413.451.54.733.132.281.198.603.201.967-.003.534-.14.997-.409 1.39-.267.388-.653.691-1.159.907-.503.213-1.11.32-1.82.32-.704 0-1.318-.108-1.84-.324-.52-.216-.927-.536-1.22-.96-.29-.425-.441-.952-.455-1.58h1.785c.02.293.104.537.252.733.15.193.35.34.6.439.253.096.539.145.857.145.313 0 .584-.046.814-.137.233-.09.413-.217.541-.379a.876.876 0 0 0 .192-.558.725.725 0 0 0-.175-.495 1.325 1.325 0 0 0-.503-.34 5.12 5.12 0 0 0-.805-.256l-.95-.239c-.736-.179-1.317-.459-1.743-.84-.426-.38-.638-.893-.635-1.537-.003-.529.138-.99.422-1.386.287-.394.68-.703 1.18-.924.5-.222 1.068-.333 1.705-.333.647 0 1.213.111 1.696.333.485.221.863.53 1.133.924.27.395.41.853.418 1.373h-1.769zM38.408 19.618c-.227-2.292-1.202-4.072-2.926-5.341-1.723-1.269-4.062-1.903-7.017-1.903-2.007 0-3.703.284-5.085.852-1.383.549-2.443 1.316-3.182 2.3-.72.986-1.08 2.103-1.08 3.353-.037 1.042.18 1.95.654 2.727.492.777 1.165 1.45 2.017 2.017.852.55 1.837 1.033 2.955 1.45 1.117.397 2.31.738 3.58 1.022l5.226 1.25c2.538.568 4.868 1.326 6.99 2.273 2.12.947 3.957 2.112 5.51 3.494a14.523 14.523 0 0 1 3.608 4.886c.872 1.876 1.317 4.025 1.336 6.45-.02 3.56-.928 6.647-2.728 9.26-1.78 2.595-4.356 4.613-7.727 6.052-3.352 1.42-7.396 2.13-12.13 2.13-4.698 0-8.788-.72-12.273-2.159-3.466-1.439-6.175-3.57-8.125-6.392-1.932-2.84-2.945-6.354-3.04-10.54h11.903c.133 1.951.692 3.58 1.676 4.887 1.004 1.288 2.34 2.263 4.006 2.926 1.686.644 3.59.966 5.71.966 2.084 0 3.892-.303 5.427-.909 1.553-.606 2.755-1.449 3.607-2.528.853-1.08 1.279-2.32 1.279-3.722 0-1.307-.388-2.405-1.165-3.295-.758-.89-1.875-1.648-3.352-2.273-1.459-.625-3.248-1.193-5.37-1.705l-6.335-1.59c-4.905-1.194-8.778-3.06-11.62-5.597-2.84-2.538-4.251-5.957-4.232-10.256-.019-3.523.919-6.6 2.812-9.233 1.913-2.632 4.537-4.687 7.87-6.165C20.52 2.828 24.308 2.09 28.55 2.09c4.319 0 8.088.739 11.307 2.216 3.239 1.478 5.758 3.533 7.557 6.165 1.8 2.633 2.727 5.682 2.784 9.148h-11.79z" fill="#13AB1E"/><path d="M31.352.818h12.16v40.568c0 3.75-.843 7.008-2.529 9.773-1.667 2.765-3.987 4.896-6.96 6.392-2.974 1.496-6.43 2.244-10.37 2.244-3.503 0-6.685-.615-9.545-1.846-2.841-1.25-5.095-3.144-6.761-5.682-1.667-2.557-2.49-5.767-2.472-9.63h12.244c.038 1.533.35 2.85.938 3.948.606 1.08 1.43 1.913 2.471 2.5 1.061.568 2.311.852 3.75.852 1.516 0 2.794-.322 3.836-.965 1.06-.663 1.865-1.63 2.414-2.898.55-1.27.824-2.832.824-4.688V.818z" fill="#AB134D"/></svg>
